svg/play_network_outline.svg

<svg xmlns="http://www.w3.org/2000/svg" viewBox="0 0 24 24"><path d="M15 20a1 1 0 0 0-1-1h-1v-2h4a2 2 0 0 0 2-2V5a2 2 0 0 0-2-2H7a2 2 0 0 0-2 2v10a2 2 0 0 0 2 2h4v2h-1a1 1 0 0 0-1 1H2v2h7a1 1 0 0 0 1 1h4a1 1 0 0 0 1-1h7v-2zm-8-5V5h10v10zm3-1V6l5 4z"/></svg>

<?xml version="1.0" encoding="UTF-8"?><!DOCTYPE svg PUBLIC "-//W3C//DTD SVG 1.1//EN" "http://www.w3.org/Graphics/SVG/1.1/DTD/svg11.dtd"><svg xmlns="http://www.w3.org/2000/svg" xmlns:xlink="http://www.w3.org/1999/xlink" version="1.1" id="mdi-play-network-outline" width="24" height="24" viewBox="0 0 24 24"><path d="M15,20A1,1 0 0,0 14,19H13V17H17A2,2 0 0,0 19,15V5A2,2 0 0,0 17,3H7A2,2 0 0,0 5,5V15A2,2 0 0,0 7,17H11V19H10A1,1 0 0,0 9,20H2V22H9A1,1 0 0,0 10,23H14A1,1 0 0,0 15,22H22V20H15M7,15V5H17V15H7M10,14V6L15,10L10,14Z" /></svg>
